X:122
U: ~ = !turn!
%%topmargin 3cm
T:Marquis of Lorne
B:Traditional Irish Fiddle Tunes. Randy Miller and Jack Perron.
Z:Transcribed by Ralph Palmer
R:Reel
M:C|
L:1/8
K:G
ba | gfgd B2 ed | cBcA E2 AG | FGAB cedc | Bcde d2 ba |
gfgd Bded | cBcA E2 AG | FGAB cdef | g2 {/a}gf g2 ::
Bc | dBgB dBgB | dBgB d2 cB | cafd cafd | cafd c2 Bc |
((3dcB) gB ((3dcB) gB | ((3dcB) gB d2 cB | Aafd ^cdef | g2 b2 g2 :|]
